X: 4
T: Eli Greene's Cakewalk
R: Reel
M: 4/4
Q: 190
L: 1/8
K: Emin
"Em"E3FG2F2|EFGAB2e2|E3FG2F2|EFGAB2B2|"Am"c3c"Em"B2B2|"Am"c3c"Em"B4|
|1 B3 c BAGA|"B7"B8:|2 "B"B3c BAGF|"Em"E4"D"D4||:"G"d^cde dcde|d2B2G2A2|
"Em"AB-Bc BAGA|"G"BBG2D2E2|"D"D3D "A7"G2G2|"D"F2d2d4|d^cde d=cBA|1 "G"G2B2G4:|2 "G"G2B2G2"B7"F2|]

